X: 1
T: Wandering Willie  1   [F/Dm]
O: Gow
R: waltz
B: Gow's Collection
B: RSCDS 12-7
N: Alternative tune for The Yellow Haired Laddie
M: 3/4
L: 1/8
K: F
|: "C7"c3BAG   |  "F"F3GF2 | "C7"G3FG2 | "F"A2"Bb"d4 \
|  "C7"c3BAG   |  "F"F3GA2 | "A"A3^GA2 | "Dm"D6 :|
[| "A7"A2d2^c2 | "Dm"d3ef2 | "C7"c3dcB | "F"A3Bc2 \
|  "A7"A2d2^c2 | "Dm"d3ef2 | "A"A2^G2A2 | "Dm"D6 ||
|| "A7"A2d2^c2 | "Dm"d3ef2 | "C7"c3dcB | "F"A3Bc2 \
|  "A7"A2d2e2  | "Dm"f3ga2 | "A"A3^GA2 | "Dm"D6 |]
